Newaita-dark/actions/24/folder-open2.svg

<?xml version="1.0" encoding="UTF-8"?>
<svg xmlns="http://www.w3.org/2000/svg" xmlns:xlink="http://www.w3.org/1999/xlink" width="24pt" height="24pt" viewBox="0 0 24 24" version="1.1">
<g id="surface1">
<path style=" stroke:none;fill-rule:nonzero;fill:rgb(74.117649%,74.117649%,74.117649%);fill-opacity:1;" d="M 7.9375 2.171875 C 6.839844 2.171875 5.953125 3.058594 5.953125 4.15625 L 5.953125 6.140625 L 2.976562 6.140625 C 1.878906 6.140625 0.992188 7.027344 0.992188 8.125 L 0.992188 20.03125 C 0.992188 21.132812 1.878906 22.019531 2.976562 22.019531 L 20.839844 22.019531 C 21.9375 22.019531 22.824219 21.132812 22.824219 20.03125 L 22.824219 10.605469 L 12.898438 10.605469 C 12.351562 10.605469 11.90625 10.164062 11.90625 9.613281 L 11.90625 6.140625 L 7.441406 6.140625 L 7.441406 4.652344 C 7.441406 4.101562 7.882812 3.660156 8.433594 3.660156 L 13.757812 3.660156 C 13.84375 3.515625 13.890625 3.34375 13.890625 3.164062 C 13.890625 2.613281 13.449219 2.171875 12.898438 2.171875 Z M 3.472656 7.628906 L 10.417969 7.628906 L 10.417969 10.109375 C 10.417969 11.210938 11.304688 12.09375 12.402344 12.09375 L 21.335938 12.09375 L 21.335938 19.535156 C 21.335938 20.085938 20.890625 20.527344 20.339844 20.527344 L 3.472656 20.527344 C 2.921875 20.527344 2.480469 20.085938 2.480469 19.535156 L 2.480469 8.621094 C 2.480469 8.070312 2.921875 7.628906 3.472656 7.628906 Z M 3.472656 7.628906 "/>
<path style="fill:none;stroke-width:42.333;stroke-linecap:butt;stroke-linejoin:round;stroke:rgb(74.117649%,74.117649%,74.117649%);stroke-opacity:1;stroke-miterlimit:4;" d="M 391.545943 -147.506445 L 317.469683 -41.683218 L 465.705527 -41.683218 Z M 391.545943 -147.506445 " transform="matrix(0.0468795,0,0,0.0468795,0,10.079087)"/>
</g>
</svg>

<svg xmlns="http://www.w3.org/2000/svg" width="32" height="32" viewBox="0 0 24 24"><path d="M7.938 2.172a1.982 1.982 0 0 0-1.985 1.984v1.985H2.977A1.982 1.982 0 0 0 .992 8.125v11.906c0 1.102.887 1.989 1.985 1.989H20.84a1.983 1.983 0 0 0 1.984-1.989v-9.426h-9.926a.991.991 0 0 1-.992-.992V6.141H7.441V4.652c0-.55.442-.992.993-.992h5.324a.972.972 0 0 0 .133-.496.989.989 0 0 0-.993-.992zM3.473 7.629h6.945v2.48a1.98 1.98 0 0 0 1.984 1.985h8.934v7.441c0 .55-.445.992-.996.992H3.473a.989.989 0 0 1-.993-.992V8.621c0-.55.442-.992.993-.992zm0 0" fill="#bdbdbd"/><path d="M18.355 3.164l-3.472 4.961h6.949zm0 0" fill="none" stroke-width="1.9845710399999998" stroke-linejoin="round" stroke="#bdbdbd"/></svg>
